packages/foundations/assets/icons/functional/images/maps/location_arrow_24.svg

<svg width="24" height="24" viewBox="0 0 24 24" fill="none" xmlns="http://www.w3.org/2000/svg">
<g clip-path="url(#clip0_186_20)">
<path fill-rule="evenodd" clip-rule="evenodd" d="M21.0909 3.41483C21.1771 3.60876 21.1771 3.83013 21.0909 4.02407L13.8241 20.4366C13.5998 20.9413 13.0088 21.1686 12.5041 20.9443C12.143 20.7838 11.9103 20.4256 11.9103 20.0304L11.9107 12.2156H3.84454C3.29226 12.2156 2.84454 11.7679 2.84454 11.2156C2.84454 10.8204 3.07726 10.4623 3.43836 10.3018L20.1009 3.03412C20.4794 2.86587 20.9226 3.03632 21.0909 3.41483ZM17.9428 6.18108L8.55585 10.2151L12.9108 10.2155C13.4236 10.2155 13.8463 10.6015 13.904 11.0989L13.9106 11.2156L13.9098 15.5681L17.9428 6.18108Z" fill="#1A1C1F"/>
</g>
<defs>
<clipPath id="clip0_186_20">
<rect width="24" height="24" fill="white"/>
</clipPath>
</defs>
</svg>

<svg xmlns="http://www.w3.org/2000/svg" width="24" height="24" fill="none"><g clip-path="url(#a)"><path fill="#1A1C1F" fill-rule="evenodd" d="M21.09 3.415a.75.75 0 0 1 0 .61l-7.266 16.412a1 1 0 0 1-1.914-.407v-7.814H3.846a1 1 0 0 1-.407-1.914l16.663-7.268a.75.75 0 0 1 .99.38M17.944 6.18l-9.387 4.034h4.355a1 1 0 0 1 .993.884l.007.117-.001 4.352z" clip-rule="evenodd"/></g><defs><clipPath id="a"><path fill="#fff" d="M0 0h24v24H0z"/></clipPath></defs></svg>
